X:1
T:Got No Luck With The Women
M:2/4
L:1/8
K:G
 GG BB| BB G2| BB d2| BA B2| BB GG| BB G2| DD EF| G2 G2|D-D EF| G4|\
 AA EE| A2 A2| BB GG| B4| cc ee| dd BB| DD EF| G4|
